X:65
T:Leather Britches
C:Traditional
M:4/4
L:1/8
Q:1/8=448
K:G
|:DEGB AGBG|DEGB AGEG|DEGB AGBG|DEDB, A,/B,/A,G,2|!
DEGB AGBG|DEGB AGEG|B/c/BAG FDEF|GBAF G4:|!
3 [gB][gd][gd][gB] [g2d2]ef|gfga gedc|BddB d2ef|gedB AGGA|!
BddB d2ef|gfga gfef|gedB AGEG|DB,DG EGGA|!
[gB][gd][gd][gB] [g2d2]ef|gfga gedc|BddB d2ef|gedB AGGG|!
BddB d2ef|gfga gfef|gedB AGFG|DB,DG EG3|!
